!!!OTL: Liebster Jesu
!!!COL: My Collection
**kern	**text	**text	**text	**text
*clefG2	*	*	*	*
*k[f#]	*	*	*	*
*M4/4	*	*	*	*
*G:	*	*	*	*
=1	.	.	.	.
4b	1.Bles-	2.Who	3.I	4.why
4g	sed	shot	don't	can't
4a	Je-	who	know	I
4dd	sus	in	who	just
=2	.	.	.	.
4b	at	the	that	fix
4g	Thy	what	guy	this
2a;	word	now	was	now
=3	.	.	.	.
4g	.	.	.	.
4g	.	.	.	.
4g	.	.	.	.
4g	.	.	.	.
=4	.	.	.	.
4a	.	.	.	.
4b	.	.	.	.
2a	.	.	.	.
=5	.	.	.	.
1g;	.	.	.	.
=6	.	.	.	.
4d	.	.	.	.
4d	.	.	.	.
4e	.	.	.	.
4f#	.	.	.	.
=7	.	.	.	.
4g	.	.	.	.
4a	.	.	.	.
4f#	.	.	.	.
4d;	.	.	.	.
=8	.	.	.	.
4g	.	.	.	.
4g	.	.	.	.
4a	.	.	.	.
4b	.	.	.	.
=9	.	.	.	.
4cc	.	.	.	.
4b	.	.	.	.
2a	.	.	.	.
=10	.	.	.	.
1g;	.	.	.	.
=||10	.	.	.	.
*-	*-	*-	*-	*-
